X: 24
T: Billy in the Low Land [5]
B: canberra pickers and fiddlers
B: tunes
M:4/4
L:1/8
R: reel
Q: 1/4=136
K:G
V:1 
|:D2 E2GEGA|B d2 B d3 d|e2 d2 BAGB|AGED E3E| 
D2 E2GEGA|Bd2eg2 eg|ageg edBA|BdAF G4:|
|:!!g!!a!!ba gfee|[D2d2] dd B d3|[e3e3]d BAGB|AGED E3D| 
!!g!!a!!ba gfee|[D2d2] dd B d3|[e3e3]f gfed|BGAF G4||
% abcbook-tune_id 63ae8f1c9e1f45ae8c9a441c
% abcbook-tune_composer_id 
% abcbook-link-0 https://www.youtube.com/watch?v=AIikbUZ69Ho
% abcbook-link-start-at-0 50
% abcbook-boost 14
% abcbook-difficulty 0
% abcbook-tags canberra pickers and fiddlers,old time tunes,steve ryan,© free
% abcbook-tablature 
% abcbook-transpose 
% abcbook-tuning GDAE
% abcbook-lastupdated 1739317687723
% abcbook-src-url https://tunebook.net/scrape/tunes.abc
% abcbook-soundfonts 
% abcbook-repeats 1


